X:1
T:Our Mission Field at Home
T:Our Mission Field at Home
T:Theodore Frelinghuysen Seward
T:Frances Jane (Fanny) Crosby, 1866
T:Public Domain Courtesy of the Cyber Hymnal™
T:Public Domain Courtesy of the Cyber Hymnal™
C:Theodore Frelinghuysen Seward
Z:Public Domain
Z:Courtesy of the Cyber Hymnal™
%%score ( 1 2 ) ( 3 4 )
L:1/8
Q:1/4=107
M:4/4
K:C
V:1 treble 
V:2 treble 
V:3 bass 
V:4 bass 
V:1
 ([CE][DF]) | [EG]2 [EG]2 ([EG][DF]) ([CE][DF]) | [EG]2 [Ge]2 [Ec]2 [Ec]2 | (dc) (BA) [FG]2 [Fd]2 | %4
w: 1.~How *|ma- ny in * our *|fa- vored land, This|ho- * ly * day pro-|
w: 2.~“Go *|feed My lambs,” * our *|Sav- ior said, “And|bring * them * to My|
w: 3.~How *|many a poor * ne- *|glect- ed child With|plead- * ing * eye we|
 [Ec]6 ([CE][DF]) | [EG]2 [EG]2 ([EG][DF]) ([CE][DF]) | [EG]2 [Ge]2 [Ec]2 [Ec]2 | %7
w: fane; Ne- *|glect the Sav- * ior’s *|gra- cious call, And|
w: fold”; For *|us the same * com- *|mand is giv’n, As|
w: meet; A *|gen- tle word * might *|hi- ther guide Its|
 (dc) (BA) [FG]2 [Fd]2 | [Ec]6 [Gc]2 | [GB]2 [GB]2 ([GB][^FA]) ([GB][Ac]) | %10
w: take * His * name in|vain; Then|while we pray * for *|
w: then * to * him of|old; While|o- thers toil * for *|
w: lit- * tle * wan- dering|feet; A|pre- cious lamb, * that *|
 [Bd]3 [Ac] [^FA]2 [FA]2 | ([FA][GB]) ([Ac][ce]) [Bd]2 [Ac]2 | [GB]6 G2 | %13
w: hea- then climes, Far|o’er * the * crys- tal|foam, O|
w: dy- ing souls, Far|o’er * the * o- cean’s|foam, Be|
w: God may bless, Be-|neath * this * hal- lowed|dome, Then|
 [GB]2 [GB]2 ([GB][^FA]) ([GB][Ac]) | [Bd]3 [Ac] [^FA]2 ([FA][GB]) | %15
w: let us ev- * er *|bear in mind, Our *|
w: ours to wave * its *|no- ble cause, Our *|
w: let us ev- * er *|bear in mind, Our *|
 ([Ac][ce]) ([Bd][Ac]) [GB]2 [^FA]2 | G6 ||"^Refrain" [EG]2 | [CE] [EG]3 [Ec]3 [Ge] | [Gd]6 G2 | %20
w: mis- * sion * field at|home.||||
w: mis- * sion * field at|home.|Our|mis- sion field at|home, Our|
w: mis- * sion * field at|home.||||
 [Ge] [Ec]3 [EG]3 [CE] | [B,D]6 ([CE][DF]) | [EG]2 [EG]2 ([EG][DF]) ([CE][DF]) | %23
w: |||
w: mis- sion field at|home; May *|each and all * re- *|
w: |||
 [EG]2 [Ge]2 [Ec]2 [Ec]2 | (dc) (BA) [FG]2 [Fd]2 | [Ec]6 |] %26
w: |||
w: mem- ber still, Our|mis- * sion * field at|home.|
w: |||
V:2
 x2 | x8 | x8 | F2 F2 x4 | x8 | x8 | x8 | F2 F2 x4 | x8 | x8 | x8 | x8 | x6 G2 | x8 | x8 | x8 | %16
 G6 || x2 | x8 | x6 G2 | x8 | x8 | x8 | x8 | F2 F2 x4 | x6 |] %26
V:3
 [C,C]2 | [C,C]2 [C,C]2 [C,C]2 [C,C]2 | [C,C]2 [C,C]2 [C,C]2 [C,C]2 | %3
 [G,B,]2 [G,B,]2 [G,D]2 [G,B,]2 | [C,C]6 [C,C]2 | [C,C]2 [C,C]2 [C,C]2 [C,C]2 | %6
 [C,C]2 [C,C]2 [C,C]2 [C,C]2 | [G,B,]2 [G,B,]2 [G,D]2 [G,B,]2 | [C,C]6 [C,E]2 | %9
 [G,D]2 [G,D]2 [G,D]2 [G,D]2 | [D,D]3 [D,D] [D,D]2 [D,D]2 | [D,D]2 [D,D]2 [D,D]2 [D,D]2 | %12
 [G,D]6 [G,B,]2 | [G,D]2 [G,D]2 [G,D]2 [G,D]2 | [D,D]3 [D,D] [D,D]2 [D,D]2 | %15
 [D,D]2 [D,D]2 [D,D]2 [D,C]2 | [G,B,]6 || [C,C]2 | [C,C] [C,C]3 [C,C]3 [C,C] | [G,B,]6 G,2 | %20
 [C,C] [C,C]3 [C,C]3 [E,G,] | G,6 [C,C]2 | [C,C]2 [C,C]2 [C,C]2 [C,C]2 | %23
 [C,C]2 [C,C]2 [C,C]2 [C,C]2 | [G,B,]2 [G,B,]2 [G,D]2 [G,B,]2 | [C,C]6 |] %26
V:4
 x2 | x8 | x8 | x8 | x8 | x8 | x8 | x8 | x8 | x8 | x8 | x8 | x8 | x8 | x8 | x8 | x6 || x2 | x8 | %19
 x6 G,2 | x8 | G,6 x2 | x8 | x8 | x8 | x6 |] %26

